.local/share/icons/Gruvbox-Plus-Dark/mimetypes/scalable/libreoffice-extension.svg

<svg width="256" height="256" viewBox="0 0 256 256" fill="none" xmlns="http://www.w3.org/2000/svg">
<g opacity="0.4" filter="url(#filter0_f)">
<path d="M55.0839 15.5636H155.608L216.009 75.7129L216.011 224.609C216.011 233.52 208.749 240.737 199.838 240.737H55.0838C46.1734 240.737 39 233.564 39 224.654V31.6474C39 22.737 46.1734 15.5636 55.0838 15.5636H55.0839Z" fill="#282828"/>
</g>
<path d="M55.0839 15H155.608L216.009 75.1493L216.011 224.045C216.011 232.956 208.749 240.174 199.838 240.174H55.0838C46.1734 240.174 39 233 39 224.09V31.0838C39 22.1734 46.1734 15 55.0838 15H55.0839Z" fill="#ebdbb2"/>
<path opacity="0.2" d="M199.838 240.174C208.749 240.174 216.011 232.956 216.011 224.046L216.01 186.5H39V224.09C39 233 46.1734 240.174 55.0838 240.174H199.838Z" fill="url(#paint0_linear)"/>
<path fill-rule="evenodd" clip-rule="evenodd" d="M155.608 20.3191H55.0839C49.1112 20.3191 44.3191 25.1111 44.3191 31.0838V224.09C44.3191 230.063 49.1111 234.855 55.0838 234.855H199.838C205.83 234.855 210.692 229.999 210.692 224.046V75.1493L155.608 20.3191ZM155.608 15H55.0839C46.1735 15 39 22.1734 39 31.0838V224.09C39 233 46.1734 240.174 55.0838 240.174H199.838C208.749 240.174 216.011 232.956 216.011 224.045L216.009 75.1493L155.608 15Z" fill="url(#paint1_linear)"/>
<path d="M102.668 226.48C111.708 226.48 114.948 218.92 114.948 212C114.948 205.08 111.708 197.52 102.668 197.52C93.6683 197.52 90.3883 205.08 90.3883 212C90.3883 218.92 93.6683 226.48 102.668 226.48ZM102.668 221.88C97.2283 221.88 95.3483 216.56 95.3483 212C95.3483 207.68 97.2283 202.12 102.668 202.12C108.108 202.12 109.988 207.4 109.988 212C109.988 216.28 108.068 221.88 102.668 221.88ZM136.062 226H141.622L132.782 211.52L141.062 198H135.502L130.022 207L124.542 198H118.982L127.222 211.52L118.382 226H123.942L130.022 216.08L136.062 226ZM157.465 202.6H165.425V198H144.705V202.6H152.665V226H157.465V202.6Z" fill="url(#paint2_linear)"/>
<path d="M117.466 44.0305C110.258 43.555 102.148 48.6751 102.436 56.5631C101.584 61.2584 106.111 64.7616 105.914 68.9981C103.248 70.1677 101.22 70.1677 99.3426 70.1677H68.1029V101.091C70.5416 106.402 75.5214 98.8181 79.4547 99.6382C86.9717 98.0644 93.7371 104.654 94.0963 111.936C95.096 118.882 92.4074 127.913 84.536 129.311C80.2903 130.028 75.7205 129.243 72.2344 126.646C68.0356 124.112 67.7681 129.673 68.1029 132.397V163.898H104.031C109.341 161.458 101.756 156.477 102.577 152.543C101.005 145.028 107.592 138.256 114.873 137.899C121.82 136.902 130.848 139.588 132.246 147.461C132.962 151.709 132.178 156.278 129.582 159.766C127.047 163.964 132.608 164.231 135.332 163.898H161.822V128.129C164.319 122.772 169.295 130.609 173.355 129.443C179.875 130.726 186.482 126.065 187.465 119.502C189.129 112.239 187.066 102.605 179.116 100.057C174.079 98.3416 169.061 100.533 164.81 103.121C160.897 103.674 161.945 98.9372 161.822 96.4953V70.1677H131.066C125.708 67.6702 133.545 62.6937 132.378 58.632C133.66 52.1119 129.001 45.5048 122.44 44.5207C120.806 44.1692 119.133 44.0315 117.466 44.0305V44.0305Z" fill="url(#paint3_linear)"/>
<path opacity="0.25" d="M155.608 17V61.2306C155.608 70.141 162.867 77.1605 171.777 77.1605L216.009 77.1493V75.1493L155.608 17Z" fill="#282828"/>
<path d="M155.608 15V59.2306C155.608 68.141 162.867 75.1605 171.777 75.1605L216.009 75.1493L155.608 15Z" fill="url(#paint4_linear)"/>
<defs>
<filter id="filter0_f" x="23.8778" y="0.441412" width="207.255" height="255.418" filterUnits="userSpaceOnUse" color-interpolation-filters="sRGB">
<feFlood flood-opacity="0" result="BackgroundImageFix"/>
<feBlend mode="normal" in="SourceGraphic" in2="BackgroundImageFix" result="shape"/>
<feGaussianBlur stdDeviation="7.5611" result="effect1_foregroundBlur"/>
</filter>
<linearGradient id="paint0_linear" x1="127.507" y1="186.5" x2="127.507" y2="240.175" gradientUnits="userSpaceOnUse">
<stop offset="1e-07" stop-color="#689d6a"/>
<stop offset="1" stop-color="#8ec07c"/>
</linearGradient>
<linearGradient id="paint1_linear" x1="127.507" y1="15" x2="127.507" y2="240.178" gradientUnits="userSpaceOnUse">
<stop offset="1e-07" stop-color="#689d6a"/>
<stop offset="1" stop-color="#8ec07c"/>
</linearGradient>
<linearGradient id="paint2_linear" x1="127.502" y1="187" x2="127.502" y2="240.001" gradientUnits="userSpaceOnUse">
<stop offset="1e-07" stop-color="#689d6a"/>
<stop offset="1" stop-color="#8ec07c"/>
</linearGradient>
<linearGradient id="paint3_linear" x1="128.001" y1="44" x2="128.001" y2="164.002" gradientUnits="userSpaceOnUse">
<stop offset="1e-07" stop-color="#689d6a"/>
<stop offset="1" stop-color="#8ec07c"/>
</linearGradient>
<linearGradient id="paint4_linear" x1="185.809" y1="15" x2="185.809" y2="75.1616" gradientUnits="userSpaceOnUse">
<stop offset="1e-07" stop-color="#689d6a"/>
<stop offset="1" stop-color="#8ec07c"/>
</linearGradient>
</defs>
</svg>

<svg width="256" height="256" fill="none" version="1.1" viewBox="0 0 256 256" xmlns="http://www.w3.org/2000/svg">
  <path d="m55.08 15h100.5l60.4 60.15 2e-3 148.9c0 8.911-7.262 16.13-16.17 16.13h-144.8c-8.91 0-16.08-7.174-16.08-16.08v-193c0-8.91 7.173-16.08 16.08-16.08h1e-4z" fill="#ebdbb2"/>
  <path d="m199.8 240.2c8.911 0 16.17-7.218 16.17-16.13l-1e-3 -37.55h-177v37.59c0 8.91 7.173 16.08 16.08 16.08h144.8z" fill="url(#paint0_linear)" opacity=".2"/>
  <path d="m155.6 20.32h-100.5c-5.973 0-10.76 4.792-10.76 10.76v193c0 5.973 4.792 10.76 10.76 10.76h144.8c5.992 0 10.85-4.856 10.85-10.81v-148.9l-55.08-54.83zm0-5.319h-100.5c-8.91 0-16.08 7.173-16.08 16.08v193c0 8.91 7.173 16.08 16.08 16.08h144.8c8.911 0 16.17-7.218 16.17-16.13l-2e-3 -148.9-60.4-60.15z" clip-rule="evenodd" fill="url(#paint1_linear)" fill-rule="evenodd"/>
  <path d="m102.7 226.5c9.04 0 12.28-7.56 12.28-14.48s-3.24-14.48-12.28-14.48c-9 0-12.28 7.56-12.28 14.48s3.28 14.48 12.28 14.48zm0-4.6c-5.44 0-7.32-5.32-7.32-9.88 0-4.32 1.88-9.88 7.32-9.88 5.44 0 7.32 5.28 7.32 9.88 0 4.28-1.92 9.88-7.32 9.88zm33.39 4.12h5.56l-8.84-14.48 8.28-13.52h-5.56l-5.48 9-5.48-9h-5.56l8.24 13.52-8.84 14.48h5.56l6.08-9.92 6.04 9.92zm21.4-23.4h7.96v-4.6h-20.72v4.6h7.96v23.4h4.8v-23.4z" fill="url(#paint2_linear)"/>
  <path d="m117.5 44.03c-7.208-0.4755-15.32 4.645-15.03 12.53-0.852 4.695 3.675 8.198 3.478 12.44-2.666 1.17-4.694 1.17-6.571 1.17h-31.24v30.92c2.439 5.311 7.418-2.273 11.35-1.453 7.517-1.574 14.28 5.016 14.64 12.3 0.9997 6.946-1.689 15.98-9.56 17.38-4.246 0.717-8.816-0.068-12.3-2.665-4.199-2.534-4.466 3.027-4.132 5.751v31.5h35.93c5.31-2.44-2.275-7.421-1.454-11.36-1.572-7.515 5.015-14.29 12.3-14.64 6.947-0.997 15.98 1.689 17.37 9.562 0.716 4.248-0.068 8.817-2.664 12.3-2.535 4.198 3.026 4.465 5.75 4.132h26.49v-35.77c2.497-5.357 7.473 2.48 11.53 1.314 6.52 1.283 13.13-3.378 14.11-9.941 1.664-7.263-0.399-16.9-8.349-19.44-5.037-1.715-10.06 0.476-14.31 3.064-3.913 0.553-2.865-4.184-2.988-6.626v-26.33h-30.76c-5.358-2.498 2.479-7.474 1.312-11.54 1.282-6.52-3.377-13.13-9.938-14.11-1.634-0.3515-3.307-0.4892-4.974-0.4902z" fill="url(#paint3_linear)"/>
  <path d="m155.6 17v44.23c0 8.91 7.259 15.93 16.17 15.93l44.23-0.0112v-2l-60.4-58.15z" fill="#282828" opacity=".25"/>
  <path d="m155.6 15v44.23c0 8.91 7.259 15.93 16.17 15.93l44.23-0.0112-60.4-60.15z" fill="url(#paint4_linear)"/>
  <defs>
    <linearGradient id="paint0_linear" x1="127.5" x2="127.5" y1="186.5" y2="240.2" gradientUnits="userSpaceOnUse">
      <stop stop-color="#689d6a" offset="1e-7"/>
      <stop stop-color="#8ec07c" offset="1"/>
    </linearGradient>
    <linearGradient id="paint1_linear" x1="127.5" x2="127.5" y1="15" y2="240.2" gradientUnits="userSpaceOnUse">
      <stop stop-color="#689d6a" offset="1e-7"/>
      <stop stop-color="#8ec07c" offset="1"/>
    </linearGradient>
    <linearGradient id="paint2_linear" x1="127.5" x2="127.5" y1="187" y2="240" gradientUnits="userSpaceOnUse">
      <stop stop-color="#689d6a" offset="1e-7"/>
      <stop stop-color="#8ec07c" offset="1"/>
    </linearGradient>
    <linearGradient id="paint3_linear" x1="128" x2="128" y1="44" y2="164" gradientUnits="userSpaceOnUse">
      <stop stop-color="#689d6a" offset="1e-7"/>
      <stop stop-color="#8ec07c" offset="1"/>
    </linearGradient>
    <linearGradient id="paint4_linear" x1="185.8" x2="185.8" y1="15" y2="75.16" gradientUnits="userSpaceOnUse">
      <stop stop-color="#689d6a" offset="1e-7"/>
      <stop stop-color="#8ec07c" offset="1"/>
    </linearGradient>
  </defs>
</svg>
